X:278
T: BRUEDER DAS IST DEUTSCHER WEIN
N: B0330
O: Europa, Mitteleuropa, Deutschland
R: Trink - Lied
M: 3/4
L: 1/16
K: G
 | G6D2D2D2 | B3AG4z4 |
A6D2D2D2 | c3BA4z4 |
D6B2B2B2 | A3Bc4D4 |
D6c2c2c2 | B3cd4G4 |
e6c2G2e2 | d3Bg8 |
g3dB2c2 | e3dd4
e3dF2A2 | e8d4 | G8

@@@ Tune index: 2081
